X:338
T:I'll Gang Nae Mair to Yon Town
R:Reel
B:The Athole Collection
M:C|
L:1/8
K:F
A|Fffc A2Fc|AccA BGGf|a/g/f/e/ fc A2FB|A/B/c GB A=FF:|
|:B|AFcF dFcf|AF d/c/B/A/ BGGB|AFcF dFcF|A/B/c GB A=FF:|
%Last time: |AFEF GABc|defg af~f||

